Otagle3/Assets/ikonySvG/HomoglifyMs.svg

<?xml version="1.0" encoding="UTF-8" standalone="no"?>
<svg
   xmlns:dc="http://purl.org/dc/elements/1.1/"
   xmlns:cc="http://creativecommons.org/ns#"
   xmlns:rdf="http://www.w3.org/1999/02/22-rdf-syntax-ns#"
   xmlns:svg="http://www.w3.org/2000/svg"
   xmlns="http://www.w3.org/2000/svg"
   id="svg47"
   version="1.1"
   viewBox="0 0 52.758294 52.758296"
   height="199.40143"
   width="199.40143">
  <defs
     id="defs42">
    <pattern
       id="EMFhbasepattern"
       patternUnits="userSpaceOnUse"
       width="6"
       height="6"
       x="0"
       y="0" />
    <marker
       style="overflow:visible"
       id="Arrow1Mend-5-0"
       refX="0"
       refY="0"
       orient="auto">
      <path
         transform="matrix(-0.4,0,0,-0.4,-4,0)"
         style="fill:#000000;fill-opacity:1;fill-rule:evenodd;stroke:#000000;stroke-width:1.00000003pt;stroke-opacity:1"
         d="M 0,0 5,-5 -12.5,0 5,5 Z"
         id="path1146-3-3" />
    </marker>
    <marker
       style="overflow:visible"
       id="Arrow1Mend-5-3"
       refX="0"
       refY="0"
       orient="auto">
      <path
         transform="matrix(-0.4,0,0,-0.4,-4,0)"
         style="fill:#000000;fill-opacity:1;fill-rule:evenodd;stroke:#000000;stroke-width:1.00000003pt;stroke-opacity:1"
         d="M 0,0 5,-5 -12.5,0 5,5 Z"
         id="path1146-3-9" />
    </marker>
    <marker
       orient="auto"
       refY="0"
       refX="0"
       id="Arrow1Mend-5-0-4"
       style="overflow:visible">
      <path
         id="path1146-3-3-8"
         d="M 0,0 5,-5 -12.5,0 5,5 Z"
         style="fill:#ffffff;fill-opacity:1;fill-rule:evenodd;stroke:#ffffff;stroke-width:1.00000003pt;stroke-opacity:1"
         transform="matrix(-0.4,0,0,-0.4,-4,0)" />
    </marker>
    <marker
       orient="auto"
       refY="0"
       refX="0"
       id="Arrow1Mend-5-3-8"
       style="overflow:visible">
      <path
         id="path1146-3-9-5"
         d="M 0,0 5,-5 -12.5,0 5,5 Z"
         style="fill:#ffffff;fill-opacity:1;fill-rule:evenodd;stroke:#ffffff;stroke-width:1.00000003pt;stroke-opacity:1"
         transform="matrix(-0.4,0,0,-0.4,-4,0)" />
    </marker>
    <marker
       style="overflow:visible"
       id="Arrow1Mend"
       refX="0"
       refY="0"
       orient="auto">
      <path
         transform="matrix(-0.4,0,0,-0.4,-4,0)"
         style="fill:#000000;fill-opacity:1;fill-rule:evenodd;stroke:#000000;stroke-width:1.00000003pt;stroke-opacity:1"
         d="M 0,0 5,-5 -12.5,0 5,5 Z"
         id="path1146" />
    </marker>
    <marker
       orient="auto"
       refY="0"
       refX="0"
       id="Arrow1Mend-5"
       style="overflow:visible">
      <path
         id="path1146-3"
         d="M 0,0 5,-5 -12.5,0 5,5 Z"
         style="fill:#ffffff;fill-opacity:1;fill-rule:evenodd;stroke:#ffffff;stroke-width:1.00000003pt;stroke-opacity:1"
         transform="matrix(-0.4,0,0,-0.4,-4,0)" />
    </marker>
    <marker
       style="overflow:visible"
       id="Arrow1Mstart"
       refX="0"
       refY="0"
       orient="auto">
      <path
         transform="matrix(0.4,0,0,0.4,4,0)"
         style="fill:#000000;fill-opacity:1;fill-rule:evenodd;stroke:#000000;stroke-width:1.00000003pt;stroke-opacity:1"
         d="M 0,0 5,-5 -12.5,0 5,5 Z"
         id="path1143" />
    </marker>
    <marker
       orient="auto"
       refY="0"
       refX="0"
       id="Arrow1Mstart-1"
       style="overflow:visible">
      <path
         id="path1143-7"
         d="M 0,0 5,-5 -12.5,0 5,5 Z"
         style="fill:#ffffff;fill-opacity:1;fill-rule:evenodd;stroke:#ffffff;stroke-width:1.00000003pt;stroke-opacity:1"
         transform="matrix(0.4,0,0,0.4,4,0)" />
    </marker>
    <marker
       style="overflow:visible"
       id="Arrow1Lend"
       refX="0"
       refY="0"
       orient="auto">
      <path
         transform="matrix(-0.8,0,0,-0.8,-10,0)"
         style="fill:#000000;fill-opacity:1;fill-rule:evenodd;stroke:#000000;stroke-width:1.00000003pt;stroke-opacity:1"
         d="M 0,0 5,-5 -12.5,0 5,5 Z"
         id="path1140" />
    </marker>
    <marker
       style="overflow:visible"
       id="Arrow1Lstart"
       refX="0"
       refY="0"
       orient="auto">
      <path
         transform="matrix(0.8,0,0,0.8,10,0)"
         style="fill:#000000;fill-opacity:1;fill-rule:evenodd;stroke:#000000;stroke-width:1.00000003pt;stroke-opacity:1"
         d="M 0,0 5,-5 -12.5,0 5,5 Z"
         id="path1137" />
    </marker>
    <marker
       orient="auto"
       refY="0"
       refX="0"
       id="Arrow1Lend-5"
       style="overflow:visible">
      <path
         id="path1140-4"
         d="M 0,0 5,-5 -12.5,0 5,5 Z"
         style="fill:#ffffff;fill-opacity:1;fill-rule:evenodd;stroke:#ffffff;stroke-width:1.00000003pt;stroke-opacity:1"
         transform="matrix(-0.8,0,0,-0.8,-10,0)" />
    </marker>
    <marker
       orient="auto"
       refY="0"
       refX="0"
       id="Arrow1Lstart-93"
       style="overflow:visible">
      <path
         id="path1137-7"
         d="M 0,0 5,-5 -12.5,0 5,5 Z"
         style="fill:#ffffff;fill-opacity:1;fill-rule:evenodd;stroke:#ffffff;stroke-width:1.00000003pt;stroke-opacity:1"
         transform="matrix(0.8,0,0,0.8,10,0)" />
    </marker>
  </defs>
  <metadata
     id="metadata45">
    <rdf:RDF>
      <cc:Work
         rdf:about="">
        <dc:format>image/svg+xml</dc:format>
        <dc:type
           rdf:resource="http://purl.org/dc/dcmitype/StillImage" />
        <dc:title></dc:title>
      </cc:Work>
    </rdf:RDF>
  </metadata>
  <g
     id="g8556"
     transform="translate(49.836509,-375.23204)">
    <g
       id="g5305">
      <text
         id="text898-7-3-6-8-3-3-0-66-7-8-8-0-8-3-4-2-6-22-3-3-4-7-0-2-6-2"
         y="425.61624"
         x="-23.21401"
         style="font-size:6.3499999px;line-height:0.94999999;font-family:voestalpine;-inkscape-font-specification:voestalpine;text-align:center;letter-spacing:0px;word-spacing:0px;text-anchor:middle;fill:#ffffff;fill-opacity:1;stroke-width:0.26458299"
         xml:space="preserve"><tspan
           style="font-size:6.3499999px;text-align:center;text-anchor:middle;fill:#ffffff;fill-opacity:1;stroke-width:0.26458299"
           y="425.61624"
           x="-23.21401"
           id="tspan3280-8-2-3-8">Pokaż nagłówek</tspan></text>
      <g
         style="fill:#ffffff;fill-opacity:1;stroke:#ffffff;stroke-opacity:1"
         id="g3425-7-6"
         transform="matrix(0.43424404,0,0,-0.43424404,-44.422754,415.59384)">
        <rect
           id="rect3393-7-1"
           height="2"
           width="13.89"
           y="68.667"
           x="17.409"
           style="fill:#ffffff;fill-opacity:1;stroke:#ffffff;stroke-opacity:1" />
        <path
           id="path3395-1-7"
           d="M 85.235,77.833 H 14.106 c -2.998,0 -5.436,-2.438 -5.436,-5.436 V 23.27 c 0,-2.998 2.438,-5.436 5.436,-5.436 h 71.129 c 2.998,0 5.436,2.438 5.436,5.436 v 49.128 c -0.001,2.998 -2.438,5.435 -5.436,5.435 z m -71.129,-58 c -1.895,0 -3.436,1.541 -3.436,3.437 v 49.128 c 0,1.895 1.541,3.436 3.436,3.436 h 71.129 c 1.895,0 3.436,-1.541 3.436,-3.436 V 23.27 c 0,-1.896 -1.541,-3.437 -3.436,-3.437 z"
           style="fill:#ffffff;fill-opacity:1;stroke:#ffffff;stroke-opacity:1" />
        <rect
           id="rect3397-6-6"
           height="2"
           width="13.89"
           y="68.667"
           x="42.648998"
           style="fill:#ffffff;fill-opacity:1;stroke:#ffffff;stroke-opacity:1" />
        <rect
           id="rect3399-8-5"
           height="2"
           width="13.89"
           y="68.667"
           x="67.704002"
           style="fill:#ffffff;fill-opacity:1;stroke:#ffffff;stroke-opacity:1" />
        <rect
           id="rect3401-4-7"
           height="2"
           width="13.89"
           y="62.667"
           x="17.500999"
           style="fill:#ffffff;fill-opacity:1;stroke:#ffffff;stroke-opacity:1" />
        <rect
           id="rect3403-9-4"
           height="2"
           width="13.89"
           y="62.667"
           x="42.742001"
           style="fill:#ffffff;fill-opacity:1;stroke:#ffffff;stroke-opacity:1" />
        <rect
           id="rect3405-2-5"
           height="2"
           width="13.89"
           y="62.667"
           x="67.795998"
           style="fill:#ffffff;fill-opacity:1;stroke:#ffffff;stroke-opacity:1" />
        <rect
           id="rect3407-0-9"
           height="2"
           width="64.139"
           y="56.667"
           x="17.500999"
           style="fill:#ffffff;fill-opacity:1;stroke:#ffffff;stroke-opacity:1" />
      </g>
      <g
         id="g1579"
         transform="translate(-43.00277,692.38876)">
        <rect
           style="fill:#ffec8e;fill-opacity:1;stroke:#000000;stroke-width:0.5;stroke-linecap:round;stroke-miterlimit:4;stroke-dasharray:none;stroke-opacity:1;paint-order:fill markers stroke"
           id="rect833-3-1-1"
           width="52.916668"
           height="52.916668"
           x="-6.4935756"
           y="-317.37164" />
        <text
           xml:space="preserve"
           style="font-size:6.3499999px;line-height:1.25;font-family:voestalpine;-inkscape-font-specification:voestalpine;text-align:center;letter-spacing:0px;word-spacing:0px;text-anchor:middle;fill:#000000;fill-opacity:1;stroke-width:0.26458299"
           x="19.777176"
           y="-267.73068"
           id="text983-9-1-9"><tspan
             id="tspan1971-0-29"
             x="19.777176"
             y="-267.73068"
             style="font-size:6.3499999px;text-align:center;text-anchor:middle;fill:#000000;fill-opacity:1;stroke-width:0.26458299">Homoglify ms</tspan></text>
        <g
           transform="matrix(0.30072764,0,0,0.29540398,4.9283919,-312.23453)"
           id="g2120-8"
           style="fill:#000000">
          <path
             d="M 92.2,10.5 H 7.8 c -3.7,0 -6.8,3 -6.8,6.8 v 65.5 c 0,3.7 3,6.8 6.8,6.8 h 84.4 c 3.7,0 6.8,-3 6.8,-6.8 V 17.2 c 0,-3.7 -3.1,-6.7 -6.8,-6.7 z M 7.8,14 h 84.4 c 1.8,0 3.3,1.5 3.3,3.3 V 29.4 H 4.5 V 17.2 C 4.5,15.4 6,14 7.8,14 Z M 92.2,86 H 7.8 C 6,86 4.5,84.5 4.5,82.7 V 32.9 h 91 V 82.8 C 95.5,84.6 94,86 92.2,86 Z M 11,22.9 c -0.3,-0.3 -0.5,-0.8 -0.5,-1.2 0,-0.4 0.2,-0.9 0.5,-1.2 0.7,-0.6 1.8,-0.6 2.5,0 0.3,0.3 0.5,0.8 0.5,1.2 0,0.4 -0.2,0.9 -0.5,1.2 -0.3,0.3 -0.8,0.5 -1.2,0.5 -0.4,0 -1,-0.2 -1.3,-0.5 z m 9.4,0 c -0.3,-0.3 -0.5,-0.8 -0.5,-1.2 0,-0.4 0.2,-0.9 0.5,-1.2 0.6,-0.6 1.8,-0.6 2.5,0 0.3,0.3 0.5,0.8 0.5,1.2 0,0.4 -0.2,0.9 -0.5,1.2 -0.3,0.3 -0.8,0.5 -1.2,0.5 -0.4,0 -1,-0.2 -1.3,-0.5 z m 9.5,0 c -0.3,-0.3 -0.5,-0.8 -0.5,-1.2 0,-0.4 0.2,-0.9 0.5,-1.2 0.6,-0.6 1.8,-0.6 2.5,0 0.3,0.3 0.5,0.8 0.5,1.2 0,0.4 -0.2,0.9 -0.5,1.2 -0.3,0.3 -0.8,0.5 -1.2,0.5 -0.4,0 -1,-0.2 -1.3,-0.5 z M 81,58.3 c 0.4,0.3 0.6,0.8 0.6,1.3 0,0.5 -0.2,1 -0.6,1.3 L 66.2,73.6 C 65.8,73.9 65.4,74 65,74 64.5,74 64,73.8 63.7,73.4 63.1,72.7 63.2,71.6 63.9,70.9 L 77.2,59.6 63.9,48.4 c -0.7,-0.6 -0.8,-1.7 -0.2,-2.5 0.6,-0.7 1.7,-0.8 2.5,-0.2 z M 36.1,70.9 c 0.7,0.6 0.8,1.7 0.2,2.5 C 36,73.8 35.5,74 35,74 34.6,74 34.2,73.9 33.9,73.6 L 19,61 c -0.4,-0.3 -0.6,-0.8 -0.6,-1.3 0,-0.5 0.2,-1 0.6,-1.3 L 33.8,45.8 c 0.7,-0.6 1.8,-0.5 2.5,0.2 0.7,0.7 0.5,1.8 -0.2,2.5 L 22.8,59.7 Z M 57.9,44.6 45.3,76.1 c -0.3,0.7 -0.9,1.1 -1.6,1.1 -0.2,0 -0.4,0 -0.6,-0.1 -0.9,-0.4 -1.3,-1.4 -1,-2.3 L 54.7,43.3 c 0.4,-0.9 1.4,-1.3 2.3,-1 0.8,0.4 1.2,1.4 0.9,2.3 z"
             id="path2109-6" />
        </g>
      </g>
    </g>
  </g>
</svg>

<svg id="SVGRoot" width="208" height="208" version="1.1" viewBox="0 0 208 208" xmlns="http://www.w3.org/2000/svg">
 <g transform="translate(0,7)">
  <g transform="matrix(3.7795 0 0 3.7795 10.171 -6.7758)">
   <g transform="translate(-1.0884 -121.69)">
    <g transform="translate(1.6608 -59.209)">
     <g transform="translate(-.6443 -59.335)">
      <g transform="translate(-1396.8 269.89)">
       <g transform="translate(-57.972 -.024822)">
        <g transform="translate(1658.1 73.867)">
         <g transform="translate(-203.03 -103.33)">
          <flowRoot transform="matrix(.26458 0 0 .26458 -2.875 1.091)" fill="#000000" font-family="sans-serif" font-size="40px" letter-spacing="0px" word-spacing="0px" style="line-height:1.25" xml:space="preserve"><flowRegion><rect x="-85.582" y="-60.812" width="342.33" height="293.65"/></flowRegion><flowPara/></flowRoot>
          <g transform="translate(-1039.4 318.88)">
           <flowRoot transform="matrix(.26458 0 0 .26458 1036.5 -317.79)" fill="#000000" font-family="sans-serif" font-size="40px" letter-spacing="0px" word-spacing="0px" style="line-height:1.25" xml:space="preserve"><flowRegion><rect x="-105.21" y="-13.703" width="562.17" height="513.49"/></flowRegion><flowPara/></flowRoot>
           <g transform="translate(-66.134 .039287)">
            <g transform="translate(-66.173 .043409)">
             <flowRoot transform="matrix(.26458 0 0 .26458 1168.8 -317.87)" fill="#000000" font-family="sans-serif" font-size="40px" letter-spacing="0px" word-spacing="0px" style="line-height:1.25" xml:space="preserve"><flowRegion><rect x="-114.63" y="-91.434" width="675.23" height="522.91"/></flowRegion><flowPara/></flowRoot>
             <g transform="translate(-66.2 -.040316)">
              <g transform="translate(-65.918 -.60254)">
               <g transform="translate(-66.6 .14883)">
                <flowRoot fill="black" font-family="sans-serif" font-size="40px" letter-spacing="0px" word-spacing="0px" style="line-height:1.25" xml:space="preserve"><flowRegion><rect x="-24.34" y="-19.695" width="252.04" height="245.75"/></flowRegion><flowPara/></flowRoot>
                <g transform="translate(-68.678 -.48293)">
                 <flowRoot fill="black" font-family="sans-serif" font-size="40px" letter-spacing="0px" word-spacing="0px" style="line-height:1.25" xml:space="preserve"><flowRegion><rect x="-65.168" y="-26.762" width="382.37" height="335.26"/></flowRegion><flowPara/></flowRoot>
                 <g transform="translate(-63.347 .4912)">
                  <g transform="translate(529.82 -.18087)">
                   <g transform="translate(794.67 .06923)">
                    <g transform="translate(-198.36 .17569)">
                     <g transform="translate(-530.68 .043413)">
                      <g transform="translate(912.04 -.041317)">
                       <rect x="-6.4936" y="-317.37" width="52.917" height="52.917" fill="#ffec8e" stroke="#000" stroke-linecap="round" stroke-width=".5" style="paint-order:fill markers stroke"/>
                       <text x="19.777176" y="-268.99216" fill="#000000" font-family="sans-serif" font-size="6.35px" letter-spacing="0px" stroke-width=".26458" text-align="center" text-anchor="middle" word-spacing="0px" style="line-height:1.25" xml:space="preserve"><tspan x="19.777176" y="-268.99216" fill="#000000" font-family="sans-serif" font-size="4.9389px" stroke-width=".26458" text-align="center" text-anchor="middle">Homoglify ms</tspan></text>
                       <g transform="matrix(.30073 0 0 .2954 4.9284 -312.23)">
                        <path d="m92.2 10.5h-84.4c-3.7 0-6.8 3-6.8 6.8v65.5c0 3.7 3 6.8 6.8 6.8h84.4c3.7 0 6.8-3 6.8-6.8v-65.6c0-3.7-3.1-6.7-6.8-6.7zm-84.4 3.5h84.4c1.8 0 3.3 1.5 3.3 3.3v12.1h-91v-12.2c0-1.8 1.5-3.2 3.3-3.2zm84.4 72h-84.4c-1.8 0-3.3-1.5-3.3-3.3v-49.8h91v49.9c0 1.8-1.5 3.2-3.3 3.2zm-81.2-63.1c-.3-.3-.5-.8-.5-1.2s.2-.9.5-1.2c.7-.6 1.8-.6 2.5 0 .3.3.5.8.5 1.2s-.2.9-.5 1.2-.8.5-1.2.5-1-.2-1.3-.5zm9.4 0c-.3-.3-.5-.8-.5-1.2s.2-.9.5-1.2c.6-.6 1.8-.6 2.5 0 .3.3.5.8.5 1.2s-.2.9-.5 1.2-.8.5-1.2.5-1-.2-1.3-.5zm9.5 0c-.3-.3-.5-.8-.5-1.2s.2-.9.5-1.2c.6-.6 1.8-.6 2.5 0 .3.3.5.8.5 1.2s-.2.9-.5 1.2-.8.5-1.2.5-1-.2-1.3-.5zm51.1 35.4c.4.3.6.8.6 1.3s-.2 1-.6 1.3l-14.8 12.7c-.4.3-.8.4-1.2.4-.5 0-1-.2-1.3-.6-.6-.7-.5-1.8.2-2.5l13.3-11.3-13.3-11.2c-.7-.6-.8-1.7-.2-2.5.6-.7 1.7-.8 2.5-.2zm-44.9 12.6c.7.6.8 1.7.2 2.5-.3.4-.8.6-1.3.6-.4 0-.8-.1-1.1-.4l-14.9-12.6c-.4-.3-.6-.8-.6-1.3s.2-1 .6-1.3l14.8-12.6c.7-.6 1.8-.5 2.5.2s.5 1.8-.2 2.5l-13.3 11.2zm21.8-26.3-12.6 31.5c-.3.7-.9 1.1-1.6 1.1-.2 0-.4 0-.6-.1-.9-.4-1.3-1.4-1-2.3l12.6-31.5c.4-.9 1.4-1.3 2.3-1 .8.4 1.2 1.4.9 2.3z"/>
                       </g>
                      </g>
                     </g>
                    </g>
                   </g>
                  </g>
                 </g>
                </g>
               </g>
              </g>
             </g>
            </g>
           </g>
          </g>
         </g>
        </g>
       </g>
      </g>
     </g>
    </g>
   </g>
  </g>
 </g>
</svg>
